;FLAVOR:Marlin
;TIME:5486
;Filament used: 5.55797m
;Layer height: 0.32
;MINX:80.231
;MINY:87.18
;MINZ:0.32
;MAXX:139.769
;MAXY:132.82
;MAXZ:27.2
;Generated with Cura_SteamEngine 5.4.0
M140 S60
M105
M190 S60
M104 S220
M105
M109 S220
M82 ;absolute extrusion mode
G28 ; home all axes
 M117 Purge extruder
 G92 E0 ; reset extruder
 G1 Z1.0 F3000 ; move z up little to prevent scratching of surface
 G1 X2 Y20 Z0.3 F5000.0 ; move to start-line position
 G1 X2 Y200.0 Z0.3 F1500.0 E15 ; draw 1st line
 G1 X2 Y200.0 Z0.4 F5000.0 ; move to side a little
 G1 X2 Y20 Z0.4 F1500.0 E30 ; draw 2nd line
 G92 E0 ; reset extruder
 G1 Z1.0 F3000 ; move z up little to prevent scratching of surface
G92 E0
G92 E0
G1 F2100 E-2
;LAYER_COUNT:85
;LAYER:0
M106 S255
G1 F300 Z0.52
G0 F6000 X82.853 Y89.146 Z0.52
;TYPE:SKIRT
G1 F300 Z0.32
G1 F1500 E0
G1 F720 X84.778 Y87.849 E0.14378
G1 X86.991 Y87.18 E0.28699
G1 X132.647 Y87.18 E3.11509
G1 X134.326 Y87.566 E3.22181
G1 X135.303 Y87.909 E3.28595
G1 X136.788 Y88.931 E3.39761
G1 X137.803 Y89.802 E3.48046
G1 X139.1 Y91.727 E3.62424
G1 X139.769 Y93.94 E3.76745
G1 X139.769 Y125.698 E5.73466
G1 X139.383 Y127.377 E5.84138
G1 X139.04 Y128.354 E5.90552
G1 X138.018 Y129.839 E6.01718
G1 X137.147 Y130.854 E6.10003
G1 X135.222 Y132.151 E6.24381
G1 X133.009 Y132.82 E6.38702
G1 X87.353 Y132.82 E9.21512
G1 X85.674 Y132.434 E9.32184
G1 X84.697 Y132.091 E9.38598
G1 X83.212 Y131.069 E9.49764
G1 X82.197 Y130.198 E9.58049
G1 X80.9 Y128.273 E9.72427
G1 X80.231 Y126.06 E9.86748
G1 X80.231 Y94.302 E11.83469
G1 X80.617 Y92.623 E11.94141
G1 X80.96 Y91.646 E12.00555
G1 X81.982 Y90.161 E12.11721
G1 X82.582 Y89.461 E12.17432
G0 F648 X82.853 Y89.146
G0 F6000 X83.176 Y89.507
G1 F720 X84.987 Y88.287 E12.30958
G1 X87.061 Y87.66 E12.44379
G1 X132.592 Y87.66 E15.26415
G1 X134.167 Y88.019 E15.36422
G1 X135.084 Y88.341 E15.42442
G1 X136.475 Y89.295 E15.5289
G1 X137.442 Y90.125 E15.60784
G1 X138.662 Y91.936 E15.7431
G1 X139.289 Y94.01 E15.87731
G1 X139.289 Y125.643 E17.83678
G1 X138.93 Y127.218 E17.93684
G1 X138.608 Y128.135 E17.99704
G1 X137.654 Y129.526 E18.10152
G1 X136.824 Y130.493 E18.18046
G1 X135.013 Y131.713 E18.31572
G1 X132.939 Y132.34 E18.44994
G1 X87.408 Y132.34 E21.27029
G1 X85.833 Y131.981 E21.37036
G1 X84.916 Y131.659 E21.43056
G1 X83.525 Y130.705 E21.53504
G1 X82.558 Y129.875 E21.61398
G1 X81.338 Y128.064 E21.74924
G1 X80.711 Y125.99 E21.88345
G1 X80.711 Y94.357 E23.84292
G1 X81.07 Y92.782 E23.94298
G1 X81.392 Y91.865 E24.00318
G1 X82.346 Y90.474 E24.10766
G1 X82.905 Y89.822 E24.16086
G0 F648 X83.176 Y89.507
G0 F6000 X83.499 Y89.868
G1 F720 X85.196 Y88.725 E24.2876
G1 X87.131 Y88.14 E24.41282
G1 X132.538 Y88.14 E27.2255
G1 X134.06 Y88.487 E27.32219
G1 X134.865 Y88.773 E27.37511
G1 X136.162 Y89.659 E27.47241
G1 X137.081 Y90.448 E27.54744
G1 X138.224 Y92.145 E27.67418
G1 X138.809 Y94.08 E27.7994
G1 X138.809 Y125.589 E29.75118
G1 X138.462 Y127.111 E29.84788
G1 X138.176 Y127.916 E29.9008
G1 X137.29 Y129.213 E29.99809
G1 X136.501 Y130.132 E30.07312
G1 X134.804 Y131.275 E30.19986
G1 X132.869 Y131.86 E30.32508
G1 X87.462 Y131.86 E33.13775
G1 X85.94 Y131.513 E33.23445
G1 X85.135 Y131.227 E33.28737
G1 X83.838 Y130.341 E33.38467
G1 X82.919 Y129.552 E33.4597
G1 X81.776 Y127.855 E33.58643
G1 X81.191 Y125.92 E33.71165
G1 X81.191 Y94.411 E35.66344
G1 X81.538 Y92.889 E35.76013
G1 X81.824 Y92.084 E35.81305
G1 X82.71 Y90.787 E35.91035
G1 X83.228 Y90.183 E35.95964
G0 F648 X83.499 Y89.868
G0 F6000 X83.822 Y90.229
G1 F720 X85.405 Y89.163 E36.07786
G1 X87.201 Y88.62 E36.19408
G1 X132.485 Y88.62 E38.99914
G1 X133.899 Y88.939 E39.08893
G1 X134.645 Y89.204 E39.13797
G1 X135.849 Y90.023 E39.22817
G1 X136.72 Y90.771 E39.29928
G1 X137.786 Y92.354 E39.4175
G1 X138.329 Y94.15 E39.53372
G1 X138.329 Y125.536 E41.47789
G1 X138.01 Y126.95 E41.56768
G1 X137.745 Y127.696 E41.61672
G1 X136.926 Y128.9 E41.70692
G1 X136.178 Y129.771 E41.77803
G1 X134.595 Y130.837 E41.89625
G1 X132.799 Y131.38 E42.01248
G1 X87.515 Y131.38 E44.81753
G1 X86.101 Y131.061 E44.90732
G1 X85.355 Y130.796 E44.95636
G1 X84.151 Y129.977 E45.04656
G1 X83.28 Y129.229 E45.11768
G1 X82.214 Y127.646 E45.2359
G1 X81.671 Y125.85 E45.35212
G1 X81.671 Y94.464 E47.29629
G1 X81.99 Y93.05 E47.38608
G1 X82.255 Y92.304 E47.43511
G1 X83.074 Y91.1 E47.52531
G1 X83.551 Y90.544 E47.57069
G0 F648 X83.822 Y90.229
G0 F6000 X84.142 Y90.592
G1 F720 X85.614 Y89.601 E47.68061
G1 X87.271 Y89.1 E47.78784
G1 X132.434 Y89.1 E50.5854
G1 X133.739 Y89.391 E50.66822
G1 X134.424 Y89.634 E50.71325
G1 X135.579 Y90.42 E50.79979
G1 X136.357 Y91.091 E50.86343
G1 X137.348 Y92.563 E50.97335
G1 X137.849 Y94.22 E51.08058
G1 X137.849 Y125.485 E53.01725
G1 X137.558 Y126.79 E53.10007
G1 X137.315 Y127.475 E53.14509
G1 X136.529 Y128.63 E53.23163
G1 X135.858 Y129.408 E53.29527
G1 X134.386 Y130.399 E53.40519
G1 X132.729 Y130.9 E53.51242
G1 X87.566 Y130.9 E56.30998
G1 X86.261 Y130.609 E56.3928
G1 X85.576 Y130.366 E56.43782
G1 X84.421 Y129.58 E56.52436
G1 X83.643 Y128.909 E56.588
G1 X82.652 Y127.437 E56.69792
G1 X82.151 Y125.78 E56.80515
G1 X82.151 Y94.515 E58.74182
G1 X82.442 Y93.21 E58.82464
G1 X82.685 Y92.525 E58.86967
G1 X83.471 Y91.37 E58.95621
G1 X83.871 Y90.907 E58.99411
G0 F648 X84.142 Y90.592
G0 F6000 X84.464 Y90.954
G1 F720 X85.823 Y90.039 E59.09559
G1 X87.341 Y89.58 E59.19383
G1 X132.38 Y89.58 E61.98371
G1 X133.578 Y89.843 E62.05968
G1 X134.206 Y90.066 E62.10096
G1 X135.265 Y90.783 E62.18018
G1 X135.995 Y91.413 E62.23991
G1 X136.91 Y92.772 E62.3414
G1 X137.369 Y94.29 E62.43963
G1 X137.369 Y125.431 E64.36862
G1 X137.106 Y126.629 E64.4446
G1 X136.883 Y127.257 E64.48588
G1 X136.166 Y128.316 E64.5651
G1 X135.536 Y129.046 E64.62483
G1 X134.177 Y129.961 E64.72631
G1 X132.659 Y130.42 E64.82454
G1 X87.62 Y130.42 E67.61443
G1 X86.422 Y130.157 E67.6904
G1 X85.794 Y129.934 E67.73168
G1 X84.735 Y129.217 E67.8109
G1 X84.005 Y128.587 E67.87063
G1 X83.09 Y127.228 E67.97211
G1 X82.631 Y125.71 E68.07035
G1 X82.631 Y94.569 E69.99934
G1 X82.894 Y93.371 E70.07531
G1 X83.117 Y92.743 E70.11659
G1 X83.834 Y91.684 E70.19581
G1 X84.193 Y91.269 E70.2298
G0 F648 X84.464 Y90.954
G0 F6000 X84.786 Y91.316
G1 F720 X86.032 Y90.477 E70.32285
G1 X87.411 Y90.06 E70.41209
G1 X132.327 Y90.06 E73.19435
G1 X133.475 Y90.312 E73.26716
G1 X133.987 Y90.497 E73.30088
G1 X134.951 Y91.146 E73.37287
G1 X135.633 Y91.735 E73.42869
G1 X136.472 Y92.981 E73.52173
G1 X136.889 Y94.36 E73.61097
G1 X136.889 Y125.378 E75.53234
G1 X136.637 Y126.526 E75.60515
G1 X136.452 Y127.038 E75.63887
G1 X135.803 Y128.002 E75.71086
G1 X135.214 Y128.684 E75.76667
G1 X133.968 Y129.523 E75.85972
G1 X132.589 Y129.94 E75.94896
G1 X87.673 Y129.94 E78.73123
G1 X86.525 Y129.688 E78.80403
G1 X86.013 Y129.503 E78.83775
G1 X85.049 Y128.854 E78.90974
G1 X84.367 Y128.265 E78.96556
G1 X83.528 Y127.019 E79.05861
G1 X83.111 Y125.64 E79.14785
G1 X83.111 Y94.622 E81.06921
G1 X83.363 Y93.474 E81.14202
G1 X83.548 Y92.962 E81.17574
G1 X84.197 Y91.998 E81.24773
G1 X84.515 Y91.63 E81.27785
G0 F648 X84.786 Y91.316
G0 F6000 X85.108 Y91.678
G1 F720 X86.241 Y90.915 E81.36247
G1 X87.481 Y90.54 E81.44271
G1 X132.274 Y90.54 E84.21736
G1 X133.372 Y90.781 E84.28699
G1 X133.768 Y90.928 E84.31315
G1 X134.637 Y91.509 E84.37791
G1 X135.271 Y92.057 E84.42981
G1 X136.034 Y93.19 E84.51443
G1 X136.409 Y94.43 E84.59467
G1 X136.409 Y125.325 E86.50842
G1 X136.168 Y126.423 E86.57806
G1 X136.021 Y126.819 E86.60422
G1 X135.44 Y127.688 E86.66897
G1 X134.892 Y128.322 E86.72088
G1 X133.759 Y129.085 E86.8055
G1 X132.519 Y129.46 E86.88574
G1 X87.726 Y129.46 E89.66038
G1 X86.628 Y129.219 E89.73002
G1 X86.232 Y129.072 E89.75618
G1 X85.363 Y128.491 E89.82093
G1 X84.729 Y127.943 E89.87284
G1 X83.966 Y126.81 E89.95746
G1 X83.591 Y125.57 E90.0377
G1 X83.591 Y94.675 E91.95145
G1 X83.832 Y93.577 E92.02109
G1 X83.979 Y93.181 E92.04725
G1 X84.56 Y92.312 E92.112
G1 X84.836 Y91.992 E92.13818
G0 F648 X85.108 Y91.678
G0 F6000 X85.43 Y92.04
G1 F720 X86.45 Y91.353 E92.21436
G1 X87.551 Y91.02 E92.28561
G1 X132.221 Y91.02 E95.05263
G1 X133.269 Y91.25 E95.11909
G1 X133.547 Y91.358 E95.13757
G1 X134.323 Y91.872 E95.19522
G1 X134.909 Y92.379 E95.24322
G1 X135.596 Y93.399 E95.3194
G1 X135.929 Y94.5 E95.39065
G1 X135.929 Y125.272 E97.29678
G1 X135.699 Y126.32 E97.36324
G1 X135.591 Y126.598 E97.38172
G1 X135.077 Y127.374 E97.43938
G1 X134.57 Y127.96 E97.48737
G1 X133.55 Y128.647 E97.56355
G1 X132.449 Y128.98 E97.6348
G1 X87.779 Y128.98 E100.40183
G1 X86.731 Y128.75 E100.46829
G1 X86.453 Y128.642 E100.48676
G1 X85.677 Y128.128 E100.54442
G1 X85.091 Y127.621 E100.59242
G1 X84.404 Y126.601 E100.6686
G1 X84.071 Y125.5 E100.73985
G1 X84.071 Y94.728 E102.64598
G1 X84.301 Y93.68 E102.71244
G1 X84.409 Y93.402 E102.73091
G1 X84.923 Y92.626 E102.78857
G1 X85.158 Y92.354 E102.81084
G0 F648 X85.43 Y92.04
G0 F6000 X85.751 Y92.402
G1 F720 X86.659 Y91.791 E102.87863
G1 X87.621 Y91.5 E102.94089
G1 X132.168 Y91.5 E105.70029
G1 X133.166 Y91.719 E105.76358
G1 X133.326 Y91.787 E105.77435
G1 X134.058 Y92.272 E105.82874
G1 X134.547 Y92.7 E105.869
G1 X135.158 Y93.608 E105.93679
G1 X135.449 Y94.57 E105.99905
G1 X135.449 Y125.219 E107.89756
G1 X135.23 Y126.217 E107.96085
G1 X135.162 Y126.377 E107.97162
G1 X134.677 Y127.109 E108.02601
G1 X134.249 Y127.598 E108.06627
G1 X133.341 Y128.209 E108.13406
G1 X132.379 Y128.5 E108.19632
G1 X87.832 Y128.5 E110.95572
G1 X86.834 Y128.281 E111.01901
G1 X86.674 Y128.213 E111.02978
G1 X85.942 Y127.728 E111.08417
G1 X85.453 Y127.3 E111.12443
G1 X84.842 Y126.392 E111.19222
G1 X84.551 Y125.43 E111.25448
G1 X84.551 Y94.781 E113.15299
G1 X84.77 Y93.783 E113.21628
G1 X84.838 Y93.623 E113.22705
G1 X85.323 Y92.891 E113.28144
G1 X85.477 Y92.715 E113.29593
G0 F648 X85.751 Y92.402
G0 F6000 X86.071 Y92.765
G1 F720 X86.868 Y92.229 E113.35542
G1 X87.691 Y91.98 E113.40868
G1 X132.115 Y91.98 E116.16047
G1 X133.063 Y92.188 E116.22059
G1 X133.742 Y92.633 E116.27088
G1 X134.184 Y93.02 E116.30727
G1 X134.72 Y93.817 E116.36676
G1 X134.969 Y94.64 E116.42002
G1 X134.969 Y125.166 E118.31092
G1 X134.761 Y126.114 E118.37104
G1 X134.316 Y126.793 E118.42132
G1 X133.929 Y127.235 E118.45771
G1 X133.132 Y127.771 E118.51721
G1 X132.309 Y128.02 E118.57047
G1 X87.885 Y128.02 E121.32226
G1 X86.937 Y127.812 E121.38238
G1 X86.258 Y127.367 E121.43266
G1 X85.816 Y126.98 E121.46905
G1 X85.28 Y126.183 E121.52855
G1 X85.031 Y125.36 E121.58181
G1 X85.031 Y94.834 E123.4727
G1 X85.239 Y93.886 E123.53282
G1 X85.684 Y93.207 E123.58311
G1 X85.797 Y93.078 E123.59373
G0 F648 X86.071 Y92.765
G0 F6000 X86.392 Y93.128
G1 F720 X87.077 Y92.667 E123.64488
G1 X87.761 Y92.46 E123.68915
G1 X132.062 Y92.46 E126.43331
G1 X132.873 Y92.638 E126.48475
G1 X133.479 Y93.035 E126.52962
G1 X133.821 Y93.341 E126.55805
G1 X134.282 Y94.026 E126.60919
G1 X134.489 Y94.71 E126.65346
G1 X134.489 Y125.113 E128.53673
G1 X134.311 Y125.924 E128.58817
G1 X133.914 Y126.53 E128.63304
G1 X133.608 Y126.872 E128.66147
G1 X132.923 Y127.333 E128.71261
G1 X132.239 Y127.54 E128.75688
G1 X87.938 Y127.54 E131.50105
G1 X87.127 Y127.362 E131.55248
G1 X86.521 Y126.965 E131.59736
G1 X86.179 Y126.659 E131.62578
G1 X85.718 Y125.974 E131.67693
G1 X85.511 Y125.29 E131.7212
G1 X85.511 Y94.887 E133.60447
G1 X85.689 Y94.076 E133.6559
G1 X86.086 Y93.47 E133.70078
G1 X86.115 Y93.438 E133.70345
G0 F648 X86.392 Y93.128
G0 F6000 X86.709 Y93.493
G1 F720 X87.286 Y93.105 E133.74652
G1 X87.831 Y92.94 E133.7818
G1 X132.009 Y92.94 E136.51834
G1 X132.683 Y93.088 E136.56109
G1 X133.216 Y93.437 E136.60055
G1 X133.456 Y93.658 E136.62076
G1 X133.844 Y94.235 E136.66383
G1 X134.009 Y94.78 E136.69911
G1 X134.009 Y125.06 E138.57476
G1 X133.861 Y125.734 E138.6175
G1 X133.512 Y126.267 E138.65697
G1 X133.291 Y126.507 E138.67718
G1 X132.714 Y126.895 E138.72025
G1 X132.169 Y127.06 E138.75552
G1 X87.991 Y127.06 E141.49207
G1 X87.317 Y126.912 E141.53481
G1 X86.784 Y126.563 E141.57428
G1 X86.544 Y126.342 E141.59449
G1 X86.156 Y125.765 E141.63756
G1 X85.991 Y125.22 E141.67283
G1 X85.991 Y94.94 E143.54848
G1 X86.139 Y94.266 E143.59123
G1 X86.439 Y93.808 E143.62514
G0 F648 X86.488 Y93.733
G0 X86.709 Y93.493
G0 F6000 X87.024 Y93.86
G1 F720 X87.495 Y93.543 E143.66031
G1 X87.901 Y93.42 E143.68659
G1 X131.956 Y93.42 E146.41552
G1 X132.493 Y93.538 E146.44958
G1 X132.953 Y93.839 E146.48363
G1 X133.089 Y93.973 E146.49545
G1 X133.406 Y94.444 E146.53062
G1 X133.529 Y94.85 E146.5569
G1 X133.529 Y125.007 E148.42494
G1 X133.411 Y125.544 E148.45899
G1 X133.11 Y126.004 E148.49305
G1 X132.976 Y126.14 E148.50487
G1 X132.505 Y126.457 E148.54004
G1 X132.099 Y126.58 E148.56632
G1 X88.044 Y126.58 E151.29525
G1 X87.507 Y126.462 E151.3293
G1 X87.047 Y126.161 E151.36336
G1 X86.911 Y126.027 E151.37518
G1 X86.594 Y125.556 E151.41035
G1 X86.471 Y125.15 E151.43663
G1 X86.471 Y94.993 E153.30466
G1 X86.589 Y94.456 E153.33872
G1 X86.767 Y94.185 E153.35881
G0 F648 X86.89 Y93.996
G0 X87.024 Y93.86
G0 F6000 X87.292 Y94.258
G1 F720 X87.704 Y93.981 E153.38956
G1 X87.971 Y93.9 E153.40684
G1 X131.902 Y93.9 E156.12809
G1 X132.305 Y93.989 E156.15365
G1 X132.691 Y94.241 E156.18221
G1 X132.968 Y94.653 E156.21296
G1 X133.049 Y94.92 E156.23024
G1 X133.049 Y124.953 E158.0906
G1 X132.96 Y125.356 E158.11616
G1 X132.708 Y125.742 E158.14472
G1 X132.296 Y126.019 E158.17547
G1 X132.029 Y126.1 E158.19275
G1 X88.098 Y126.1 E160.914
G1 X87.695 Y126.011 E160.93957
G1 X87.309 Y125.759 E160.96812
G1 X87.032 Y125.347 E160.99887
G1 X86.951 Y125.08 E161.01616
G1 X86.951 Y95.047 E162.87651
G1 X87.04 Y94.644 E162.90208
G1 X87.065 Y94.607 E162.90484
G0 F648 X87.292 Y94.258
G0 F6000 X87.95 Y94.969
G1 F720 X88.079 Y94.86 E162.9153
G1 X131.849 Y94.86 E165.62658
G1 X131.98 Y94.899 E165.63504
G1 X132.089 Y95.028 E165.64551
G1 X132.089 Y124.9 E167.49589
G1 X132.05 Y125.031 E167.50435
G1 X131.921 Y125.14 E167.51482
G1 X88.151 Y125.14 E170.22609
G1 X88.02 Y125.101 E170.23456
G1 X87.911 Y124.972 E170.24502
G1 X87.911 Y95.38 E172.07806
G0 F648 X87.911 Y95.1
G0 X87.95 Y94.969
G0 F6000 X87.64 Y94.602
G1 F720 X87.971 Y94.38 E172.10274
G1 X131.849 Y94.38 E174.82071
G1 X132.117 Y94.439 E174.83771
G1 X132.347 Y94.589 E174.85472
G1 X132.569 Y94.92 E174.8794
G1 X132.569 Y124.9 E176.73647
G1 X132.51 Y125.168 E176.75347
G1 X132.36 Y125.398 E176.77048
G1 X132.029 Y125.62 E176.79517
G1 X88.151 Y125.62 E179.51313
G1 X87.883 Y125.561 E179.53013
G1 X87.653 Y125.411 E179.54714
G1 X87.431 Y125.08 E179.57183
G1 X87.431 Y95.1 E181.4289
G1 X87.46 Y94.97 E181.43715
G0 F648 X87.49 Y94.832
G0 X87.64 Y94.602
G1 F2100 E179.43715
G1 F300 Z0.52
;MESH:BRACKET  v4.stl
G0 F6000 X92.099 Y95.775 Z0.52
;TYPE:WALL-INNER
G1 F300 Z0.32
G1 F1500 E181.43715
G1 F789 X92.559 Y95.75 E181.45885
G1 F786.9 X92.999 Y95.775 E181.47967
G1 F2100 E179.47967
G0 F6000 X93.932 Y95.967
G0 X94.479 Y96.438
G0 X94.777 Y96.908
G0 X94.963 Y97.431
G0 X95.029 Y97.985
G0 X95.029 Y121.985
G0 X94.968 Y122.55
G0 X94.79 Y123.063
G0 X94.499 Y123.534
G0 X93.93 Y124.033
G0 X93.562 Y124.063
G1 F1500 E181.47967
G1 F700.7 X93.059 Y124.223 E181.50766
G1 F653.1 X94.242 Y124.18 E181.57503
G1 F602.5 X126.19 Y124.182 E183.54576
G1 F656 X127.331 Y124.223 E183.61045
G1 F704.2 X126.828 Y124.062 E183.63832
G1 F660.6 X126.398 Y123.813 E183.66628
G1 F615.4 X126.033 Y123.457 E183.69707
G1 F600 X125.755 Y123.019 E183.72921
G1 X125.583 Y122.526 E183.76155
G1 X125.523 Y122.009 E183.79379
G1 X125.582 Y121.476 E183.82701
G1 X125.764 Y120.975 E183.86003
G1 X126.025 Y120.563 E183.89024
G1 X126.382 Y120.196 E183.92195
G1 X126.818 Y119.92 E183.95392
G1 X127.308 Y119.744 E183.98617
G1 X127.858 Y119.675 E184.0205
G1 X128.385 Y119.74 E184.05339
G1 X128.865 Y119.91 E184.08494
G1 X129.278 Y120.168 E184.1151
