;FLAVOR:Marlin
;TIME:49553
;Filament used: 75.5107m
;Layer height: 0.32
;MINX:12.18
;MINY:28.46
;MINZ:0.32
;MAXX:207.82
;MAXY:192.82
;MAXZ:60.8
;Generated with Cura_SteamEngine 5.4.0
M140 S60
M105
M190 S60
M104 S220
M105
M109 S220
M82 ;absolute extrusion mode
G28 ; home all axes
 M117 Purge extruder
 G92 E0 ; reset extruder
 G1 Z1.0 F3000 ; move z up little to prevent scratching of surface
 G1 X2 Y20 Z0.3 F5000.0 ; move to start-line position
 G1 X2 Y200.0 Z0.3 F1500.0 E15 ; draw 1st line
 G1 X2 Y200.0 Z0.4 F5000.0 ; move to side a little
 G1 X2 Y20 Z0.4 F1500.0 E30 ; draw 2nd line
 G92 E0 ; reset extruder
 G1 Z1.0 F3000 ; move z up little to prevent scratching of surface
G92 E0
G92 E0
G1 F2100 E-2
;LAYER_COUNT:190
;LAYER:0
M106 S255
G1 F300 Z0.52
G0 F6000 X16.727 Y29.13 Z0.52
;TYPE:SKIRT
G1 F300 Z0.32
G1 F1500 E0
G1 F720 X18.94 Y28.461 E0.14321
G1 X200.698 Y28.46 E11.40197
G1 X202.377 Y28.846 E11.50868
G1 X203.354 Y29.189 E11.57282
G1 X204.839 Y30.211 E11.68449
G1 X205.854 Y31.082 E11.76734
G1 X207.151 Y33.007 E11.91112
G1 X207.82 Y35.22 E12.05433
G1 X207.82 Y185.698 E21.37549
G1 X207.434 Y187.377 E21.4822
G1 X207.091 Y188.354 E21.54635
G1 X206.069 Y189.839 E21.65801
G1 X205.198 Y190.854 E21.74086
G1 X203.273 Y192.151 E21.88464
G1 X201.06 Y192.82 E22.02785
G1 X19.302 Y192.82 E33.28661
G1 X17.623 Y192.434 E33.39332
G1 X16.646 Y192.091 E33.45746
G1 X15.161 Y191.069 E33.56913
G1 X14.146 Y190.198 E33.65198
G1 X12.849 Y188.273 E33.79576
G1 X12.18 Y186.06 E33.93897
G1 X12.18 Y35.583 E43.26007
G1 X12.566 Y33.904 E43.36678
G1 X12.909 Y32.927 E43.43092
G1 X13.931 Y31.442 E43.54259
G1 X14.802 Y30.427 E43.62544
G1 X16.382 Y29.362 E43.74347
G0 F648 X16.727 Y29.13
G0 F6000 X16.936 Y29.568
G1 F720 X19.01 Y28.941 E43.87768
G1 X200.643 Y28.94 E55.1287
G1 X202.218 Y29.299 E55.22876
G1 X203.135 Y29.621 E55.28896
G1 X204.526 Y30.575 E55.39344
G1 X205.493 Y31.405 E55.47238
G1 X206.713 Y33.216 E55.60764
G1 X207.34 Y35.29 E55.74186
G1 X207.34 Y185.643 E65.05527
G1 X206.981 Y187.218 E65.15534
G1 X206.659 Y188.135 E65.21554
G1 X205.705 Y189.526 E65.32002
G1 X204.875 Y190.493 E65.39896
G1 X203.064 Y191.713 E65.53422
G1 X200.99 Y192.34 E65.66843
G1 X19.357 Y192.34 E76.91945
G1 X17.782 Y191.981 E77.01951
G1 X16.865 Y191.659 E77.07971
G1 X15.474 Y190.705 E77.1842
G1 X14.507 Y189.875 E77.26313
G1 X13.287 Y188.064 E77.39839
G1 X12.66 Y185.99 E77.53261
G1 X12.66 Y35.638 E86.84596
G1 X13.019 Y34.063 E86.94603
G1 X13.341 Y33.146 E87.00623
G1 X14.295 Y31.755 E87.11071
G1 X15.125 Y30.788 E87.18965
G1 X16.591 Y29.8 E87.29916
G0 F648 X16.936 Y29.568
G0 F6000 X17.145 Y30.006
G1 F720 X19.08 Y29.421 E87.42438
G1 X200.589 Y29.42 E98.66771
G1 X202.111 Y29.767 E98.76441
G1 X202.916 Y30.053 E98.81733
G1 X204.213 Y30.939 E98.91462
G1 X205.132 Y31.728 E98.98965
G1 X206.275 Y33.425 E99.11639
G1 X206.86 Y35.36 E99.24161
G1 X206.86 Y185.589 E108.54735
G1 X206.513 Y187.111 E108.64404
G1 X206.227 Y187.916 E108.69696
G1 X205.341 Y189.213 E108.79426
G1 X204.552 Y190.132 E108.86929
G1 X202.855 Y191.275 E108.99603
G1 X200.92 Y191.86 E109.12124
G1 X19.411 Y191.86 E120.36458
G1 X17.889 Y191.513 E120.46128
G1 X17.084 Y191.227 E120.51419
G1 X15.787 Y190.341 E120.61149
G1 X14.868 Y189.552 E120.68652
G1 X13.725 Y187.855 E120.81326
G1 X13.14 Y185.92 E120.93848
G1 X13.14 Y35.692 E130.24415
G1 X13.487 Y34.17 E130.34085
G1 X13.773 Y33.365 E130.39377
G1 X14.659 Y32.068 E130.49106
G1 X15.448 Y31.149 E130.56609
G1 X16.8 Y30.238 E130.66708
G0 F648 X17.145 Y30.006
G0 F6000 X17.354 Y30.444
G1 F720 X19.15 Y29.901 E130.7833
G1 X200.536 Y29.9 E142.01902
G1 X201.95 Y30.219 E142.10881
G1 X202.696 Y30.484 E142.15785
G1 X203.9 Y31.303 E142.24805
G1 X204.771 Y32.051 E142.31916
G1 X205.837 Y33.634 E142.43738
G1 X206.38 Y35.43 E142.55361
G1 X206.38 Y185.536 E151.85172
G1 X206.061 Y186.95 E151.94151
G1 X205.796 Y187.696 E151.99055
G1 X204.977 Y188.9 E152.08075
G1 X204.229 Y189.771 E152.15187
G1 X202.646 Y190.837 E152.27009
G1 X200.85 Y191.38 E152.38631
G1 X19.464 Y191.38 E163.62203
G1 X18.05 Y191.061 E163.71182
G1 X17.304 Y190.796 E163.76086
G1 X16.1 Y189.977 E163.85105
G1 X15.229 Y189.229 E163.92217
G1 X14.163 Y187.646 E164.04039
G1 X13.62 Y185.85 E164.15661
G1 X13.62 Y35.745 E173.45467
G1 X13.939 Y34.331 E173.54446
G1 X14.204 Y33.585 E173.5935
G1 X15.023 Y32.381 E173.6837
G1 X15.771 Y31.51 E173.75482
G1 X17.009 Y30.676 E173.84728
G0 F648 X17.354 Y30.444
G0 F6000 X17.563 Y30.882
G1 F720 X19.22 Y30.381 E173.95451
G1 X200.485 Y30.38 E185.18273
G1 X201.79 Y30.671 E185.26555
G1 X202.475 Y30.914 E185.31057
G1 X203.63 Y31.7 E185.39711
G1 X204.408 Y32.371 E185.46075
G1 X205.399 Y33.843 E185.57067
G1 X205.9 Y35.5 E185.6779
G1 X205.9 Y185.485 E194.96853
G1 X205.609 Y186.79 E195.05135
G1 X205.366 Y187.475 E195.09637
G1 X204.58 Y188.63 E195.18291
G1 X203.909 Y189.408 E195.24655
G1 X202.437 Y190.399 E195.35647
G1 X200.78 Y190.9 E195.4637
G1 X19.515 Y190.9 E206.69192
G1 X18.21 Y190.609 E206.77474
G1 X17.525 Y190.366 E206.81976
G1 X16.37 Y189.58 E206.9063
G1 X15.592 Y188.909 E206.96994
G1 X14.601 Y187.437 E207.07986
G1 X14.1 Y185.78 E207.18709
G1 X14.1 Y35.796 E216.47765
G1 X14.391 Y34.491 E216.56047
G1 X14.634 Y33.806 E216.6055
G1 X15.42 Y32.651 E216.69204
G1 X16.091 Y31.873 E216.75568
G1 X17.218 Y31.114 E216.83984
G0 F648 X17.563 Y30.882
G0 F6000 X17.772 Y31.32
G1 F720 X19.29 Y30.861 E216.93808
G1 X200.431 Y30.86 E228.15862
G1 X201.629 Y31.123 E228.23459
G1 X202.257 Y31.346 E228.27587
G1 X203.316 Y32.063 E228.35509
G1 X204.046 Y32.693 E228.41482
G1 X204.961 Y34.052 E228.51631
G1 X205.42 Y35.57 E228.61454
G1 X205.42 Y185.431 E237.89748
G1 X205.157 Y186.629 E237.97346
G1 X204.934 Y187.257 E238.01474
G1 X204.217 Y188.316 E238.09396
G1 X203.587 Y189.046 E238.15369
G1 X202.228 Y189.961 E238.25517
G1 X200.71 Y190.42 E238.35341
G1 X19.569 Y190.42 E249.57395
G1 X18.371 Y190.157 E249.64992
G1 X17.743 Y189.934 E249.6912
G1 X16.684 Y189.217 E249.77042
G1 X15.954 Y188.587 E249.83015
G1 X15.039 Y187.228 E249.93163
G1 X14.58 Y185.71 E250.02987
G1 X14.58 Y35.85 E259.31275
G1 X14.843 Y34.652 E259.38872
G1 X15.066 Y34.024 E259.43001
G1 X15.783 Y32.965 E259.50922
G1 X16.413 Y32.235 E259.56895
G1 X17.427 Y31.552 E259.64469
G0 F648 X17.772 Y31.32
G0 F6000 X17.981 Y31.758
G1 F720 X19.36 Y31.341 E259.73393
G1 X200.378 Y31.34 E270.94685
G1 X201.526 Y31.592 E271.01965
G1 X202.038 Y31.777 E271.05337
G1 X203.002 Y32.426 E271.12536
G1 X203.684 Y33.015 E271.18118
G1 X204.523 Y34.261 E271.27423
G1 X204.94 Y35.64 E271.36347
G1 X204.94 Y185.378 E280.63879
G1 X204.688 Y186.526 E280.71159
G1 X204.503 Y187.038 E280.74531
G1 X203.854 Y188.002 E280.8173
G1 X203.265 Y188.684 E280.87312
G1 X202.019 Y189.523 E280.96617
G1 X200.64 Y189.94 E281.05541
G1 X19.622 Y189.94 E292.26833
G1 X18.474 Y189.688 E292.34113
G1 X17.962 Y189.503 E292.37485
G1 X16.998 Y188.854 E292.44684
G1 X16.316 Y188.265 E292.50266
G1 X15.477 Y187.019 E292.59571
G1 X15.06 Y185.64 E292.68495
G1 X15.06 Y35.903 E301.96021
G1 X15.312 Y34.755 E302.03301
G1 X15.497 Y34.243 E302.06674
G1 X16.146 Y33.279 E302.13872
G1 X16.735 Y32.597 E302.19454
G1 X17.636 Y31.99 E302.26184
G0 F648 X17.981 Y31.758
G0 F6000 X18.19 Y32.196
G1 F720 X19.43 Y31.821 E302.34208
G1 X200.325 Y31.82 E313.54738
G1 X201.423 Y32.061 E313.61702
G1 X201.819 Y32.208 E313.64318
G1 X202.688 Y32.789 E313.70793
G1 X203.322 Y33.337 E313.75984
G1 X204.085 Y34.47 E313.84445
G1 X204.46 Y35.71 E313.9247
G1 X204.46 Y185.325 E323.1924
G1 X204.219 Y186.423 E323.26204
G1 X204.072 Y186.819 E323.2882
G1 X203.491 Y187.688 E323.35295
G1 X202.943 Y188.322 E323.40486
G1 X201.81 Y189.085 E323.48948
G1 X200.57 Y189.46 E323.56972
G1 X19.675 Y189.46 E334.77502
G1 X18.577 Y189.219 E334.84466
G1 X18.181 Y189.072 E334.87082
G1 X17.312 Y188.491 E334.93557
G1 X16.678 Y187.943 E334.98748
G1 X15.915 Y186.81 E335.0721
G1 X15.54 Y185.57 E335.15234
G1 X15.54 Y35.956 E344.41998
G1 X15.781 Y34.858 E344.48962
G1 X15.928 Y34.462 E344.51578
G1 X16.509 Y33.593 E344.58053
G1 X17.057 Y32.959 E344.63244
G1 X17.845 Y32.428 E344.6913
G0 F648 X18.19 Y32.196
G0 F6000 X18.399 Y32.634
G1 F720 X19.5 Y32.301 E344.76255
G1 X200.272 Y32.3 E355.96023
G1 X201.32 Y32.53 E356.0267
G1 X201.598 Y32.638 E356.04517
G1 X202.374 Y33.152 E356.10283
G1 X202.96 Y33.659 E356.15083
G1 X203.647 Y34.679 E356.227
G1 X203.98 Y35.78 E356.29826
G1 X203.98 Y185.272 E365.55834
G1 X203.75 Y186.32 E365.6248
G1 X203.642 Y186.598 E365.64328
G1 X203.128 Y187.374 E365.70093
G1 X202.621 Y187.96 E365.74893
G1 X201.601 Y188.647 E365.82511
G1 X200.5 Y188.98 E365.89636
G1 X19.728 Y188.98 E377.09404
G1 X18.68 Y188.75 E377.1605
G1 X18.402 Y188.642 E377.17898
G1 X17.626 Y188.128 E377.23663
G1 X17.04 Y187.621 E377.28463
G1 X16.353 Y186.601 E377.36081
G1 X16.02 Y185.5 E377.43206
G1 X16.02 Y36.009 E386.69208
G1 X16.25 Y34.961 E386.75855
G1 X16.358 Y34.683 E386.77702
G1 X16.872 Y33.907 E386.83468
G1 X17.379 Y33.321 E386.88268
G1 X18.054 Y32.866 E386.9331
G0 F648 X18.399 Y32.634
G0 F6000 X18.608 Y33.072
G1 F720 X19.57 Y32.781 E386.99536
G1 X200.219 Y32.78 E398.18542
G1 X201.217 Y32.999 E398.24871
G1 X201.377 Y33.067 E398.25948
G1 X202.109 Y33.552 E398.31387
G1 X202.598 Y33.98 E398.35413
G1 X203.209 Y34.888 E398.42192
G1 X203.5 Y35.85 E398.48418
G1 X203.5 Y185.219 E407.73664
G1 X203.281 Y186.217 E407.79993
G1 X203.213 Y186.377 E407.8107
G1 X202.728 Y187.109 E407.86509
G1 X202.3 Y187.598 E407.90535
G1 X201.392 Y188.209 E407.97314
G1 X200.43 Y188.5 E408.0354
G1 X19.781 Y188.5 E419.22546
G1 X18.783 Y188.281 E419.28875
G1 X18.623 Y188.213 E419.29952
G1 X17.891 Y187.728 E419.35391
G1 X17.402 Y187.3 E419.39417
G1 X16.791 Y186.392 E419.46196
G1 X16.5 Y185.43 E419.52421
G1 X16.5 Y36.062 E428.77662
G1 X16.719 Y35.064 E428.83991
G1 X16.787 Y34.904 E428.85068
G1 X17.272 Y34.172 E428.90507
G1 X17.7 Y33.683 E428.94532
G1 X18.263 Y33.304 E428.98736
G0 F648 X18.608 Y33.072
G0 F6000 X18.817 Y33.51
G1 F720 X19.64 Y33.261 E429.04063
G1 X200.166 Y33.26 E440.22307
G1 X201.114 Y33.468 E440.28319
G1 X201.793 Y33.913 E440.33348
G1 X202.235 Y34.3 E440.36987
G1 X202.771 Y35.097 E440.42936
G1 X203.02 Y35.92 E440.48262
G1 X203.02 Y185.166 E449.72747
G1 X202.812 Y186.114 E449.78759
G1 X202.367 Y186.793 E449.83788
G1 X201.98 Y187.235 E449.87427
G1 X201.183 Y187.771 E449.93376
G1 X200.36 Y188.02 E449.98703
G1 X19.834 Y188.02 E461.16947
G1 X18.886 Y187.812 E461.22959
G1 X18.207 Y187.367 E461.27988
G1 X17.765 Y186.98 E461.31627
G1 X17.229 Y186.183 E461.37576
G1 X16.98 Y185.36 E461.42902
G1 X16.98 Y36.115 E470.67381
G1 X17.188 Y35.167 E470.73393
G1 X17.633 Y34.488 E470.78421
G1 X18.02 Y34.046 E470.82061
G1 X18.472 Y33.742 E470.85435
G0 F648 X18.817 Y33.51
G0 F6000 X19.026 Y33.948
G1 F720 X19.71 Y33.741 E470.89861
G1 X200.113 Y33.74 E482.07344
G1 X200.924 Y33.918 E482.12487
G1 X201.53 Y34.315 E482.16975
G1 X201.872 Y34.621 E482.19817
G1 X202.333 Y35.306 E482.24932
G1 X202.54 Y35.99 E482.29359
G1 X202.54 Y185.113 E491.53081
G1 X202.362 Y185.924 E491.58225
G1 X201.965 Y186.53 E491.62712
G1 X201.659 Y186.872 E491.65555
G1 X200.974 Y187.333 E491.70669
G1 X200.29 Y187.54 E491.75096
G1 X19.887 Y187.54 E502.92579
G1 X19.076 Y187.362 E502.97722
G1 X18.47 Y186.965 E503.02209
G1 X18.128 Y186.659 E503.05052
G1 X17.667 Y185.974 E503.10167
G1 X17.46 Y185.29 E503.14593
G1 X17.46 Y36.168 E512.3831
G1 X17.638 Y35.357 E512.43453
G1 X18.035 Y34.751 E512.47941
G1 X18.341 Y34.409 E512.50783
G1 X18.681 Y34.18 E512.53323
G0 F648 X19.026 Y33.948
G0 F6000 X19.235 Y34.386
G1 F720 X19.78 Y34.221 E512.5685
G1 X200.06 Y34.22 E523.7357
G1 X200.734 Y34.368 E523.77845
G1 X201.267 Y34.717 E523.81791
G1 X201.507 Y34.938 E523.83812
G1 X201.895 Y35.515 E523.88119
G1 X202.06 Y36.06 E523.91646
G1 X202.06 Y185.06 E533.14607
G1 X201.912 Y185.734 E533.18882
G1 X201.563 Y186.267 E533.22828
G1 X201.342 Y186.507 E533.24849
G1 X200.765 Y186.895 E533.29156
G1 X200.22 Y187.06 E533.32683
G1 X19.94 Y187.06 E544.49404
G1 X19.266 Y186.912 E544.53678
G1 X18.733 Y186.563 E544.57625
G1 X18.493 Y186.342 E544.59646
G1 X18.105 Y185.765 E544.63953
G1 X17.94 Y185.22 E544.6748
G1 X17.94 Y36.221 E553.90435
G1 X18.088 Y35.547 E553.94709
G1 X18.437 Y35.014 E553.98656
G1 X18.658 Y34.774 E554.00677
G1 X18.89 Y34.618 E554.02408
G0 F648 X19.235 Y34.386
G0 F6000 X19.444 Y34.824
G1 F720 X19.85 Y34.701 E554.05036
G1 X200.007 Y34.7 E565.20995
G1 X200.544 Y34.818 E565.244
G1 X201.004 Y35.119 E565.27806
G1 X201.14 Y35.253 E565.28988
G1 X201.457 Y35.724 E565.32505
G1 X201.58 Y36.13 E565.35133
G1 X201.58 Y185.007 E574.57332
G1 X201.462 Y185.544 E574.60738
G1 X201.161 Y186.004 E574.64143
G1 X201.027 Y186.14 E574.65325
G1 X200.556 Y186.457 E574.68842
G1 X200.15 Y186.58 E574.7147
G1 X19.993 Y186.58 E585.87429
G1 X19.456 Y186.462 E585.90834
G1 X18.996 Y186.161 E585.9424
G1 X18.86 Y186.027 E585.95422
G1 X18.543 Y185.556 E585.98939
G1 X18.42 Y185.15 E586.01567
G1 X18.42 Y36.274 E595.2376
G1 X18.538 Y35.737 E595.27165
G1 X18.839 Y35.277 E595.3057
G1 X18.973 Y35.141 E595.31753
G1 X19.099 Y35.056 E595.32695
G0 F648 X19.444 Y34.824
G0 F6000 X19.653 Y35.262
G1 F720 X19.92 Y35.181 E595.34423
G1 X199.953 Y35.18 E606.49614
G1 X200.356 Y35.269 E606.5217
G1 X200.742 Y35.521 E606.55025
G1 X201.019 Y35.933 E606.58101
G1 X201.1 Y36.2 E606.59829
G1 X201.1 Y184.953 E615.8126
G1 X201.011 Y185.356 E615.83816
G1 X200.759 Y185.742 E615.86672
G1 X200.347 Y186.019 E615.89747
G1 X200.08 Y186.1 E615.91475
G1 X20.047 Y186.1 E627.06666
G1 X19.644 Y186.011 E627.09222
G1 X19.258 Y185.759 E627.12078
G1 X18.981 Y185.347 E627.15153
G1 X18.9 Y185.08 E627.16881
G1 X18.9 Y36.328 E636.38306
G1 X18.989 Y35.925 E636.40862
G1 X19.241 Y35.539 E636.43718
G1 X19.308 Y35.494 E636.44218
G0 F648 X19.653 Y35.262
G0 F6000 X20.028 Y36.141
G1 F720 X199.9 Y36.14 E647.58411
G1 X200.031 Y36.179 E647.59258
G1 X200.14 Y36.308 E647.60304
G1 X200.14 Y184.9 E656.80737
G1 X200.101 Y185.031 E656.81584
G1 X199.972 Y185.14 E656.8263
G1 X20.1 Y185.14 E667.96823
G1 X19.969 Y185.101 E667.9767
G1 X19.86 Y184.972 E667.98716
G1 X19.86 Y36.493 E677.1845
G0 F648 X19.86 Y36.381
G0 X19.899 Y36.25
G0 X20.028 Y36.141
G0 F6000 X19.92 Y35.661
G1 F720 X199.9 Y35.66 E688.33312
G1 X200.168 Y35.719 E688.35012
G1 X200.398 Y35.869 E688.36713
G1 X200.62 Y36.2 E688.39182
G1 X200.62 Y184.9 E697.60284
G1 X200.561 Y185.168 E697.61984
G1 X200.411 Y185.398 E697.63685
G1 X200.08 Y185.62 E697.66154
G1 X20.1 Y185.62 E708.81016
G1 X19.832 Y185.561 E708.82716
G1 X19.602 Y185.411 E708.84417
G1 X19.38 Y185.08 E708.86885
G1 X19.38 Y36.381 E718.07982
G1 X19.439 Y36.113 E718.09682
G1 X19.58 Y35.898 E718.11274
G0 F648 X19.589 Y35.883
G0 X19.92 Y35.661
G1 F2100 E716.11274
G1 F300 Z0.52
G0 F6000 X61.714 Y79.279 Z0.52
G1 F300 Z0.32
G1 F1500 E718.11274
G1 F720 X61.918 Y79.121 E718.12873
G1 X62.18 Y79.012 E718.1463
G1 X62.439 Y78.979 E718.16248
G1 X62.683 Y79.011 E718.17772
G1 X62.927 Y79.11 E718.19403
G1 X63.136 Y79.27 E718.21033
G1 X63.296 Y79.474 E718.22639
G1 X63.403 Y79.735 E718.24387
G1 X63.436 Y79.976 E718.25894
G1 X63.404 Y80.237 E718.27522
G1 X63.303 Y80.486 E718.29187
G1 X63.148 Y80.69 E718.30774
G1 X62.941 Y80.852 E718.32402
G1 X62.679 Y80.959 E718.34155
G1 X62.437 Y80.991 E718.35667
G1 X62.175 Y80.959 E718.37302
G1 X61.937 Y80.861 E718.38897
G1 X61.723 Y80.698 E718.40563
G1 X61.564 Y80.495 E718.4216
G1 X61.456 Y80.234 E718.4391
G1 X61.424 Y79.992 E718.45422
G1 X61.456 Y79.731 E718.47051
G1 X61.498 Y79.63 E718.47728
G0 F648 X61.556 Y79.488
G0 X61.714 Y79.279
G0 F6000 X62.058 Y79.619
G1 F720 X62.161 Y79.54 E718.48532
G1 X62.306 Y79.479 E718.49507
G1 X62.436 Y79.463 E718.50318
G1 X62.562 Y79.479 E718.51105
G1 X62.684 Y79.529 E718.51922
G1 X62.796 Y79.615 E718.52796
