;FLAVOR:Marlin
;TIME:11490
;Filament used: 15.2743m
;Layer height: 0.32
;MINX:59.086
;MINY:67.18
;MINZ:0.32
;MAXX:160.581
;MAXY:152.82
;MAXZ:34.12
;Generated with Cura_SteamEngine 5.4.0
M140 S60
M105
M190 S60
M104 S220
M105
M109 S220
M82 ;absolute extrusion mode
G28 ; home all axes
 M117 Purge extruder
 G92 E0 ; reset extruder
 G1 Z1.0 F3000 ; move z up little to prevent scratching of surface
 G1 X2 Y20 Z0.3 F5000.0 ; move to start-line position
 G1 X2 Y200.0 Z0.3 F1500.0 E15 ; draw 1st line
 G1 X2 Y200.0 Z0.4 F5000.0 ; move to side a little
 G1 X2 Y20 Z0.4 F1500.0 E30 ; draw 2nd line
 G92 E0 ; reset extruder
 G1 Z1.0 F3000 ; move z up little to prevent scratching of surface
G92 E0
G92 E0
G1 F2100 E-2
;LAYER_COUNT:106
;LAYER:0
M106 S255
G1 F300 Z0.52
G0 F6000 X61.708 Y69.146 Z0.52
;TYPE:SKIRT
G1 F300 Z0.32
G1 F1500 E0
G1 F720 X63.633 Y67.849 E0.14378
G1 X65.846 Y67.18 E0.28699
G1 X153.458 Y67.18 E5.714
G1 X155.137 Y67.566 E5.82072
G1 X156.114 Y67.909 E5.88486
G1 X157.599 Y68.931 E5.99652
G1 X158.614 Y69.802 E6.07937
G1 X159.911 Y71.727 E6.22315
G1 X160.58 Y73.94 E6.36636
G1 X160.581 Y145.698 E10.81131
G1 X160.195 Y147.377 E10.91803
G1 X159.852 Y148.354 E10.98217
G1 X158.83 Y149.839 E11.09384
G1 X157.959 Y150.854 E11.17669
G1 X156.034 Y152.151 E11.32047
G1 X153.821 Y152.82 E11.46368
G1 X66.209 Y152.82 E16.89069
G1 X64.53 Y152.434 E16.9974
G1 X63.553 Y152.091 E17.06154
G1 X62.068 Y151.069 E17.17321
G1 X61.053 Y150.198 E17.25606
G1 X59.756 Y148.273 E17.39984
G1 X59.087 Y146.06 E17.54305
G1 X59.086 Y74.302 E21.988
G1 X59.472 Y72.623 E22.09472
G1 X59.815 Y71.646 E22.15886
G1 X60.837 Y70.161 E22.27052
G1 X61.437 Y69.461 E22.32763
G0 F648 X61.708 Y69.146
G0 F6000 X62.031 Y69.507
G1 F720 X63.842 Y68.287 E22.46289
G1 X65.916 Y67.66 E22.59711
G1 X153.403 Y67.66 E28.01637
G1 X154.978 Y68.019 E28.11644
G1 X155.895 Y68.341 E28.17664
G1 X157.286 Y69.295 E28.28112
G1 X158.253 Y70.125 E28.36006
G1 X159.473 Y71.936 E28.49532
G1 X160.1 Y74.01 E28.62953
G1 X160.101 Y145.643 E33.06674
G1 X159.742 Y147.218 E33.16681
G1 X159.42 Y148.135 E33.22701
G1 X158.466 Y149.526 E33.33149
G1 X157.636 Y150.493 E33.41043
G1 X155.825 Y151.713 E33.54569
G1 X153.751 Y152.34 E33.6799
G1 X66.264 Y152.34 E39.09917
G1 X64.689 Y151.981 E39.19923
G1 X63.772 Y151.659 E39.25944
G1 X62.381 Y150.705 E39.36392
G1 X61.414 Y149.875 E39.44286
G1 X60.194 Y148.064 E39.57812
G1 X59.567 Y145.99 E39.71233
G1 X59.566 Y74.357 E44.14954
G1 X59.925 Y72.782 E44.2496
G1 X60.247 Y71.865 E44.30981
G1 X61.201 Y70.474 E44.41429
G1 X61.76 Y69.822 E44.46749
G0 F648 X62.031 Y69.507
G0 F6000 X62.354 Y69.868
G1 F720 X64.051 Y68.725 E44.59423
G1 X65.986 Y68.14 E44.71944
G1 X153.349 Y68.14 E50.13103
G1 X154.871 Y68.487 E50.22773
G1 X155.676 Y68.773 E50.28065
G1 X156.973 Y69.659 E50.37794
G1 X157.892 Y70.448 E50.45297
G1 X159.035 Y72.145 E50.57971
G1 X159.62 Y74.08 E50.70493
G1 X159.621 Y145.589 E55.13446
G1 X159.274 Y147.111 E55.23116
G1 X158.988 Y147.916 E55.28407
G1 X158.102 Y149.213 E55.38137
G1 X157.313 Y150.132 E55.4564
G1 X155.616 Y151.275 E55.58314
G1 X153.681 Y151.86 E55.70836
G1 X66.318 Y151.86 E61.11994
G1 X64.796 Y151.513 E61.21664
G1 X63.991 Y151.227 E61.26956
G1 X62.694 Y150.341 E61.36686
G1 X61.775 Y149.552 E61.44188
G1 X60.632 Y147.855 E61.56862
G1 X60.047 Y145.92 E61.69384
G1 X60.046 Y74.411 E66.12337
G1 X60.393 Y72.889 E66.22007
G1 X60.679 Y72.084 E66.27299
G1 X61.565 Y70.787 E66.37028
G1 X62.083 Y70.183 E66.41957
G0 F648 X62.354 Y69.868
G0 F6000 X62.677 Y70.229
G1 F720 X64.26 Y69.163 E66.53779
G1 X66.056 Y68.62 E66.65401
G1 X153.296 Y68.62 E72.05798
G1 X154.71 Y68.939 E72.14777
G1 X155.456 Y69.204 E72.19681
G1 X156.66 Y70.023 E72.28701
G1 X157.531 Y70.771 E72.35813
G1 X158.597 Y72.354 E72.47634
G1 X159.14 Y74.15 E72.59257
G1 X159.141 Y145.536 E77.01448
G1 X158.822 Y146.95 E77.10427
G1 X158.557 Y147.696 E77.15331
G1 X157.738 Y148.9 E77.24351
G1 X156.99 Y149.771 E77.31463
G1 X155.407 Y150.837 E77.43284
G1 X153.611 Y151.38 E77.54907
G1 X66.371 Y151.38 E82.95303
G1 X64.957 Y151.061 E83.04282
G1 X64.211 Y150.796 E83.09186
G1 X63.007 Y149.977 E83.18206
G1 X62.136 Y149.229 E83.25318
G1 X61.07 Y147.646 E83.3714
G1 X60.527 Y145.85 E83.48762
G1 X60.526 Y74.464 E87.90953
G1 X60.845 Y73.05 E87.99932
G1 X61.11 Y72.304 E88.04836
G1 X61.929 Y71.1 E88.13856
G1 X62.406 Y70.544 E88.18394
G0 F648 X62.677 Y70.229
G0 F6000 X62.997 Y70.592
G1 F720 X64.469 Y69.601 E88.29386
G1 X66.126 Y69.1 E88.40109
G1 X153.245 Y69.1 E93.79756
G1 X154.55 Y69.391 E93.88038
G1 X155.235 Y69.634 E93.9254
G1 X156.39 Y70.42 E94.01194
G1 X157.168 Y71.091 E94.07558
G1 X158.159 Y72.563 E94.1855
G1 X158.66 Y74.22 E94.29273
G1 X158.661 Y145.485 E98.70715
G1 X158.37 Y146.79 E98.78997
G1 X158.127 Y147.475 E98.83499
G1 X157.341 Y148.63 E98.92153
G1 X156.67 Y149.408 E98.98517
G1 X155.198 Y150.399 E99.09509
G1 X153.541 Y150.9 E99.20232
G1 X66.422 Y150.9 E104.59879
G1 X65.117 Y150.609 E104.68161
G1 X64.432 Y150.366 E104.72664
G1 X63.277 Y149.58 E104.81318
G1 X62.499 Y148.909 E104.87682
G1 X61.508 Y147.437 E104.98674
G1 X61.007 Y145.78 E105.09397
G1 X61.006 Y74.515 E109.50838
G1 X61.297 Y73.21 E109.5912
G1 X61.54 Y72.525 E109.63623
G1 X62.326 Y71.37 E109.72277
G1 X62.726 Y70.907 E109.76067
G0 F648 X62.997 Y70.592
G0 F6000 X63.319 Y70.954
G1 F720 X64.678 Y70.039 E109.86215
G1 X66.196 Y69.58 E109.96039
G1 X153.191 Y69.58 E115.34918
G1 X154.389 Y69.843 E115.42515
G1 X155.017 Y70.066 E115.46643
G1 X156.076 Y70.783 E115.54565
G1 X156.806 Y71.413 E115.60538
G1 X157.721 Y72.772 E115.70686
G1 X158.18 Y74.29 E115.8051
G1 X158.181 Y145.431 E120.21183
G1 X157.918 Y146.629 E120.28781
G1 X157.695 Y147.257 E120.32909
G1 X156.978 Y148.316 E120.40831
G1 X156.348 Y149.046 E120.46804
G1 X154.989 Y149.961 E120.56952
G1 X153.471 Y150.42 E120.66776
G1 X66.476 Y150.42 E126.05655
G1 X65.278 Y150.157 E126.13252
G1 X64.65 Y149.934 E126.1738
G1 X63.591 Y149.217 E126.25302
G1 X62.861 Y148.587 E126.31275
G1 X61.946 Y147.228 E126.41424
G1 X61.487 Y145.71 E126.51247
G1 X61.486 Y74.569 E130.91921
G1 X61.749 Y73.371 E130.99518
G1 X61.972 Y72.743 E131.03646
G1 X62.689 Y71.684 E131.11568
G1 X63.048 Y71.269 E131.14967
G0 F648 X63.319 Y70.954
G0 F6000 X63.641 Y71.316
G1 F720 X64.887 Y70.477 E131.24272
G1 X66.266 Y70.06 E131.33196
G1 X153.138 Y70.06 E136.71313
G1 X154.286 Y70.312 E136.78594
G1 X154.798 Y70.497 E136.81966
G1 X155.762 Y71.146 E136.89165
G1 X156.444 Y71.735 E136.94747
G1 X157.283 Y72.981 E137.04051
G1 X157.7 Y74.36 E137.12975
G1 X157.701 Y145.378 E141.52887
G1 X157.449 Y146.526 E141.60167
G1 X157.264 Y147.038 E141.6354
G1 X156.615 Y148.002 E141.70738
G1 X156.026 Y148.684 E141.7632
G1 X154.78 Y149.523 E141.85625
G1 X153.401 Y149.94 E141.94549
G1 X66.529 Y149.94 E147.32666
G1 X65.381 Y149.688 E147.39947
G1 X64.869 Y149.503 E147.43319
G1 X63.905 Y148.854 E147.50517
G1 X63.223 Y148.265 E147.56099
G1 X62.384 Y147.019 E147.65404
G1 X61.967 Y145.64 E147.74328
G1 X61.966 Y74.622 E152.1424
G1 X62.218 Y73.474 E152.2152
G1 X62.403 Y72.962 E152.24892
G1 X63.052 Y71.998 E152.32091
G1 X63.37 Y71.63 E152.35104
G0 F648 X63.641 Y71.316
G0 F6000 X63.963 Y71.678
G1 F720 X65.096 Y70.915 E152.43565
G1 X66.336 Y70.54 E152.51589
G1 X153.085 Y70.54 E157.88945
G1 X154.183 Y70.781 E157.95908
G1 X154.579 Y70.928 E157.98524
G1 X155.448 Y71.509 E158.05
G1 X156.082 Y72.057 E158.10191
G1 X156.845 Y73.19 E158.18652
G1 X157.22 Y74.43 E158.26676
G1 X157.221 Y145.325 E162.65826
G1 X156.98 Y146.423 E162.72789
G1 X156.833 Y146.819 E162.75406
G1 X156.252 Y147.688 E162.81881
G1 X155.704 Y148.322 E162.87072
G1 X154.571 Y149.085 E162.95533
G1 X153.331 Y149.46 E163.03558
G1 X66.582 Y149.46 E168.40913
G1 X65.484 Y149.219 E168.47876
G1 X65.088 Y149.072 E168.50493
G1 X64.219 Y148.491 E168.56968
G1 X63.585 Y147.943 E168.62159
G1 X62.822 Y146.81 E168.7062
G1 X62.447 Y145.57 E168.78645
G1 X62.446 Y74.675 E173.17795
G1 X62.687 Y73.577 E173.24758
G1 X62.834 Y73.181 E173.27374
G1 X63.415 Y72.312 E173.3385
G1 X63.691 Y71.992 E173.36467
G0 F648 X63.963 Y71.678
G0 F6000 X64.285 Y72.04
G1 F720 X65.305 Y71.353 E173.44085
G1 X66.406 Y71.02 E173.5121
G1 X153.032 Y71.02 E178.87803
G1 X154.08 Y71.25 E178.9445
G1 X154.358 Y71.358 E178.96297
G1 X155.134 Y71.872 E179.02063
G1 X155.72 Y72.379 E179.06863
G1 X156.407 Y73.399 E179.1448
G1 X156.74 Y74.5 E179.21605
G1 X156.741 Y145.272 E183.59993
G1 X156.511 Y146.32 E183.66639
G1 X156.403 Y146.598 E183.68487
G1 X155.889 Y147.374 E183.74253
G1 X155.382 Y147.96 E183.79052
G1 X154.362 Y148.647 E183.8667
G1 X153.261 Y148.98 E183.93795
G1 X66.635 Y148.98 E189.30389
G1 X65.587 Y148.75 E189.37035
G1 X65.309 Y148.642 E189.38882
G1 X64.533 Y148.128 E189.44648
G1 X63.947 Y147.621 E189.49448
G1 X63.26 Y146.601 E189.57065
G1 X62.927 Y145.5 E189.64191
G1 X62.926 Y74.728 E194.02578
G1 X63.156 Y73.68 E194.09225
G1 X63.264 Y73.402 E194.11072
G1 X63.778 Y72.626 E194.16838
G1 X64.013 Y72.354 E194.19064
G0 F648 X64.285 Y72.04
G0 F6000 X64.606 Y72.402
G1 F720 X65.514 Y71.791 E194.25844
G1 X66.476 Y71.5 E194.32069
G1 X152.979 Y71.5 E199.67901
G1 X153.977 Y71.719 E199.7423
G1 X154.137 Y71.787 E199.75307
G1 X154.869 Y72.272 E199.80746
G1 X155.358 Y72.7 E199.84771
G1 X155.969 Y73.608 E199.91551
G1 X156.26 Y74.57 E199.97776
G1 X156.261 Y145.219 E204.35402
G1 X156.042 Y146.217 E204.41731
G1 X155.974 Y146.377 E204.42808
G1 X155.489 Y147.109 E204.48247
G1 X155.061 Y147.598 E204.52273
G1 X154.153 Y148.209 E204.59052
G1 X153.191 Y148.5 E204.65278
G1 X66.688 Y148.5 E210.01109
G1 X65.69 Y148.281 E210.07438
G1 X65.53 Y148.213 E210.08515
G1 X64.798 Y147.728 E210.13954
G1 X64.309 Y147.3 E210.1798
G1 X63.698 Y146.392 E210.24759
G1 X63.407 Y145.43 E210.30985
G1 X63.406 Y74.781 E214.6861
G1 X63.625 Y73.783 E214.7494
G1 X63.693 Y73.623 E214.76016
G1 X64.178 Y72.891 E214.81456
G1 X64.332 Y72.715 E214.82904
G0 F648 X64.606 Y72.402
G0 F6000 X64.926 Y72.765
G1 F720 X65.723 Y72.229 E214.88854
G1 X66.546 Y71.98 E214.9418
G1 X152.926 Y71.98 E220.29249
G1 X153.874 Y72.188 E220.35261
G1 X154.553 Y72.633 E220.4029
G1 X154.995 Y73.02 E220.43929
G1 X155.531 Y73.817 E220.49879
G1 X155.78 Y74.64 E220.55205
G1 X155.781 Y145.166 E224.92069
G1 X155.573 Y146.114 E224.98081
G1 X155.128 Y146.793 E225.0311
G1 X154.741 Y147.235 E225.06749
G1 X153.944 Y147.771 E225.12698
G1 X153.121 Y148.02 E225.18024
G1 X66.741 Y148.02 E230.53094
G1 X65.793 Y147.812 E230.59106
G1 X65.114 Y147.367 E230.64135
G1 X64.672 Y146.98 E230.67774
G1 X64.136 Y146.183 E230.73723
G1 X63.887 Y145.36 E230.79049
G1 X63.886 Y74.834 E235.15913
G1 X64.094 Y73.886 E235.21925
G1 X64.539 Y73.207 E235.26954
G1 X64.652 Y73.078 E235.28016
G0 F648 X64.926 Y72.765
G0 F6000 X65.247 Y73.128
G1 F720 X65.932 Y72.667 E235.33131
G1 X66.616 Y72.46 E235.37558
G1 X152.873 Y72.46 E240.71865
G1 X153.684 Y72.638 E240.77008
G1 X154.29 Y73.035 E240.81496
G1 X154.632 Y73.341 E240.84339
G1 X155.093 Y74.026 E240.89453
G1 X155.3 Y74.71 E240.9388
G1 X155.301 Y145.113 E245.29982
G1 X155.123 Y145.924 E245.35125
G1 X154.726 Y146.53 E245.39613
G1 X154.42 Y146.872 E245.42455
G1 X153.735 Y147.333 E245.4757
G1 X153.051 Y147.54 E245.51997
G1 X66.794 Y147.54 E250.86304
G1 X65.983 Y147.362 E250.91447
G1 X65.377 Y146.965 E250.95935
G1 X65.035 Y146.659 E250.98778
G1 X64.574 Y145.974 E251.03892
G1 X64.367 Y145.29 E251.08319
G1 X64.366 Y74.887 E255.44421
G1 X64.544 Y74.076 E255.49564
G1 X64.941 Y73.47 E255.54052
G1 X64.97 Y73.438 E255.54319
G0 F648 X65.247 Y73.128
G0 F6000 X65.564 Y73.493
G1 F720 X66.141 Y73.105 E255.58626
G1 X66.686 Y72.94 E255.62154
G1 X152.82 Y72.94 E260.95699
G1 X153.494 Y73.088 E260.99974
G1 X154.027 Y73.437 E261.0392
G1 X154.267 Y73.658 E261.05941
G1 X154.655 Y74.235 E261.10248
G1 X154.82 Y74.78 E261.13775
G1 X154.821 Y145.06 E265.49116
G1 X154.673 Y145.734 E265.5339
G1 X154.324 Y146.267 E265.57337
G1 X154.103 Y146.507 E265.59357
G1 X153.526 Y146.895 E265.63665
G1 X152.981 Y147.06 E265.67192
G1 X66.847 Y147.06 E271.00737
G1 X66.173 Y146.912 E271.05012
G1 X65.64 Y146.563 E271.08958
G1 X65.4 Y146.342 E271.10979
G1 X65.012 Y145.765 E271.15286
G1 X64.847 Y145.22 E271.18814
G1 X64.846 Y74.94 E275.54154
G1 X64.994 Y74.266 E275.58428
G1 X65.294 Y73.808 E275.6182
G0 F648 X65.343 Y73.733
G0 X65.564 Y73.493
G0 F6000 X65.879 Y73.86
G1 F720 X66.35 Y73.543 E275.65336
G1 X66.756 Y73.42 E275.67964
G1 X152.767 Y73.42 E281.00748
G1 X153.304 Y73.538 E281.04154
G1 X153.764 Y73.839 E281.07559
G1 X153.9 Y73.973 E281.08742
G1 X154.217 Y74.444 E281.12258
G1 X154.34 Y74.85 E281.14886
G1 X154.341 Y145.007 E285.49464
G1 X154.223 Y145.544 E285.5287
G1 X153.922 Y146.004 E285.56275
G1 X153.788 Y146.14 E285.57458
G1 X153.317 Y146.457 E285.60975
G1 X152.911 Y146.58 E285.63603
G1 X66.9 Y146.58 E290.96386
G1 X66.363 Y146.462 E290.99792
G1 X65.903 Y146.161 E291.03197
G1 X65.767 Y146.027 E291.0438
G1 X65.45 Y145.556 E291.07897
G1 X65.327 Y145.15 E291.10525
G1 X65.326 Y74.993 E295.45103
G1 X65.444 Y74.456 E295.48509
G1 X65.622 Y74.185 E295.50517
G0 F648 X65.745 Y73.996
G0 X65.879 Y73.86
G0 F6000 X66.147 Y74.258
G1 F720 X66.559 Y73.981 E295.53592
G1 X66.826 Y73.9 E295.55321
G1 X152.713 Y73.9 E300.87336
G1 X153.116 Y73.989 E300.89893
G1 X153.502 Y74.241 E300.92748
G1 X153.779 Y74.653 E300.95823
G1 X153.86 Y74.92 E300.97552
G1 X153.861 Y144.953 E305.31362
G1 X153.772 Y145.356 E305.33918
G1 X153.52 Y145.742 E305.36774
G1 X153.108 Y146.019 E305.39849
G1 X152.841 Y146.1 E305.41577
G1 X66.954 Y146.1 E310.73593
G1 X66.551 Y146.011 E310.7615
G1 X66.165 Y145.759 E310.79005
G1 X65.888 Y145.347 E310.8208
G1 X65.807 Y145.08 E310.83809
G1 X65.806 Y75.047 E315.17619
G1 X65.895 Y74.644 E315.20175
G1 X65.92 Y74.607 E315.20452
G0 F648 X66.147 Y74.258
G0 F6000 X66.805 Y74.969
G1 F720 X66.934 Y74.86 E315.21498
G1 X152.66 Y74.86 E320.52516
G1 X152.791 Y74.899 E320.53363
G1 X152.9 Y75.028 E320.54409
G1 X152.901 Y144.9 E324.87222
G1 X152.862 Y145.031 E324.88069
G1 X152.733 Y145.14 E324.89115
G1 X67.007 Y145.14 E330.20133
G1 X66.876 Y145.101 E330.2098
G1 X66.767 Y144.972 E330.22026
G1 X66.766 Y75.38 E334.53104
G0 F648 X66.766 Y75.1
G0 X66.805 Y74.969
G0 F6000 X66.495 Y74.602
G1 F720 X66.826 Y74.38 E334.55573
G1 X152.66 Y74.38 E339.8726
G1 X152.928 Y74.439 E339.8896
G1 X153.158 Y74.589 E339.90661
G1 X153.38 Y74.92 E339.9313
G1 X153.381 Y144.9 E344.26612
G1 X153.322 Y145.168 E344.28312
G1 X153.172 Y145.398 E344.30013
G1 X152.841 Y145.62 E344.32481
G1 X67.007 Y145.62 E349.64169
G1 X66.739 Y145.561 E349.65869
G1 X66.509 Y145.411 E349.67569
G1 X66.287 Y145.08 E349.70038
G1 X66.286 Y75.1 E354.0352
G1 X66.315 Y74.97 E354.04345
G0 F648 X66.345 Y74.832
G0 X66.495 Y74.602
G1 F2100 E352.04345
G1 F300 Z0.52
;MESH:soporte v39.stl
G0 F6000 X80.231 Y82.801 Z0.52
;TYPE:WALL-INNER
G1 F300 Z0.32
G1 F1500 E354.04345
G1 F600 X79.589 Y82.89 E354.0836
G1 X78.933 Y82.807 E354.12456
G1 X78.327 Y82.559 E354.16512
G1 X77.83 Y82.175 E354.20402
G1 X77.43 Y81.665 E354.24417
G1 X77.167 Y81.064 E354.28481
G1 X77.08 Y80.397 E354.32647
G1 X77.158 Y79.773 E354.36543
G1 X77.423 Y79.135 E354.40822
G1 X77.795 Y78.652 E354.44599
G1 X78.333 Y78.236 E354.48811
G1 X78.911 Y77.997 E354.52686
G1 X79.584 Y77.915 E354.56885
G1 X80.19 Y77.987 E354.60665
G1 X80.8 Y78.233 E354.6474
G1 X81.315 Y78.624 E354.68745
G1 X81.713 Y79.131 E354.72738
G1 X81.972 Y79.74 E354.76837
G1 X82.061 Y80.379 E354.80833
G1 X81.976 Y81.04 E354.84962
G1 X81.731 Y81.637 E354.88959
G1 X81.352 Y82.137 E354.92845
G1 X80.802 Y82.565 E354.97162
G1 X80.615 Y82.642 E354.98415
G0 F540 X80.231 Y82.801
G1 F2100 E352.98415
G0 F6000 X80.313 Y83.001
G0 X139.47 Y83.013
G0 X139.552 Y82.811
G1 F1500 E354.98415
G1 F600 X138.95 Y82.566 E355.02441
G1 X138.436 Y82.177 E355.06434
