;FLAVOR:Marlin
;TIME:15193
;Filament used: 23.7991m
;Layer height: 0.32
;MINX:12.18
;MINY:58.783
;MINZ:0.32
;MAXX:207.82
;MAXY:157.932
;MAXZ:11.08
;Generated with Cura_SteamEngine 5.4.0
M140 S60
M105
M190 S60
M104 S220
M105
M109 S220
M82 ;absolute extrusion mode
G28 ; home all axes
 M117 Purge extruder
 G92 E0 ; reset extruder
 G1 Z1.0 F3000 ; move z up little to prevent scratching of surface
 G1 X2 Y20 Z0.3 F5000.0 ; move to start-line position
 G1 X2 Y200.0 Z0.3 F1500.0 E15 ; draw 1st line
 G1 X2 Y200.0 Z0.4 F5000.0 ; move to side a little
 G1 X2 Y20 Z0.4 F1500.0 E30 ; draw 2nd line
 G92 E0 ; reset extruder
 G1 Z1.0 F3000 ; move z up little to prevent scratching of surface
G92 E0
G92 E0
G1 F2100 E-2
;LAYER_COUNT:34
;LAYER:0
M106 S255
G1 F300 Z0.52
G0 F6000 X18.94 Y58.783 Z0.52
;TYPE:SKIRT
G1 F300 Z0.32
G1 F1500 E0
G1 F720 X200.698 Y58.783 E11.25876
G1 X202.377 Y59.169 E11.36548
G1 X203.354 Y59.512 E11.42962
G1 X204.839 Y60.534 E11.54128
G1 X205.854 Y61.405 E11.62413
G1 X207.151 Y63.33 E11.76791
G1 X207.82 Y65.543 E11.91112
G1 X207.82 Y150.809 E17.19281
G1 X207.434 Y152.488 E17.29953
G1 X207.091 Y153.465 E17.36367
G1 X206.069 Y154.95 E17.47533
G1 X205.198 Y155.965 E17.55818
G1 X203.273 Y157.262 E17.70196
G1 X201.06 Y157.931 E17.84517
G1 X19.302 Y157.932 E29.10393
G1 X17.623 Y157.546 E29.21065
G1 X16.646 Y157.203 E29.27479
G1 X15.161 Y156.181 E29.38645
G1 X14.146 Y155.31 E29.4693
G1 X12.849 Y153.385 E29.61308
G1 X12.18 Y151.172 E29.75629
G1 X12.18 Y65.905 E35.03804
G1 X12.566 Y64.226 E35.14476
G1 X12.909 Y63.249 E35.2089
G1 X13.931 Y61.764 E35.32056
G1 X14.802 Y60.749 E35.40341
G1 X16.727 Y59.452 E35.54719
G1 X18.542 Y58.903 E35.66465
G0 F648 X18.94 Y58.783
G0 F6000 X19.01 Y59.263
G1 F720 X200.643 Y59.263 E46.91567
G1 X202.218 Y59.622 E47.01573
G1 X203.135 Y59.944 E47.07593
G1 X204.526 Y60.898 E47.18042
G1 X205.493 Y61.728 E47.25935
G1 X206.713 Y63.539 E47.39461
G1 X207.34 Y65.613 E47.52883
G1 X207.34 Y150.754 E52.80277
G1 X206.981 Y152.329 E52.90284
G1 X206.659 Y153.246 E52.96304
G1 X205.705 Y154.637 E53.06752
G1 X204.875 Y155.604 E53.14646
G1 X203.064 Y156.824 E53.28172
G1 X200.99 Y157.451 E53.41593
G1 X19.357 Y157.452 E64.66695
G1 X17.782 Y157.093 E64.76701
G1 X16.865 Y156.771 E64.82722
G1 X15.474 Y155.817 E64.9317
G1 X14.507 Y154.987 E65.01064
G1 X13.287 Y153.176 E65.1459
G1 X12.66 Y151.102 E65.28011
G1 X12.66 Y65.96 E70.55412
G1 X13.019 Y64.385 E70.65418
G1 X13.341 Y63.468 E70.71438
G1 X14.295 Y62.077 E70.81886
G1 X15.125 Y61.11 E70.8978
G1 X16.936 Y59.89 E71.03306
G1 X18.612 Y59.383 E71.14153
G0 F648 X19.01 Y59.263
G0 F6000 X19.08 Y59.743
G1 F720 X200.589 Y59.743 E82.38486
G1 X202.111 Y60.09 E82.48156
G1 X202.916 Y60.376 E82.53448
G1 X204.213 Y61.262 E82.63177
G1 X205.132 Y62.051 E82.7068
G1 X206.275 Y63.748 E82.83354
G1 X206.86 Y65.683 E82.95876
G1 X206.86 Y150.7 E88.22503
G1 X206.513 Y152.222 E88.32172
G1 X206.227 Y153.027 E88.37464
G1 X205.341 Y154.324 E88.47194
G1 X204.552 Y155.243 E88.54697
G1 X202.855 Y156.386 E88.67371
G1 X200.92 Y156.971 E88.79893
G1 X19.411 Y156.972 E100.04226
G1 X17.889 Y156.625 E100.13896
G1 X17.084 Y156.339 E100.19188
G1 X15.787 Y155.453 E100.28917
G1 X14.868 Y154.664 E100.3642
G1 X13.725 Y152.967 E100.49094
G1 X13.14 Y151.032 E100.61616
G1 X13.14 Y66.014 E105.88249
G1 X13.487 Y64.492 E105.97918
G1 X13.773 Y63.687 E106.0321
G1 X14.659 Y62.39 E106.1294
G1 X15.448 Y61.471 E106.20443
G1 X17.145 Y60.328 E106.33117
G1 X18.682 Y59.863 E106.43063
G0 F648 X19.08 Y59.743
G0 F6000 X19.15 Y60.223
G1 F720 X200.536 Y60.223 E117.66635
G1 X201.95 Y60.542 E117.75614
G1 X202.696 Y60.807 E117.80518
G1 X203.9 Y61.626 E117.89538
G1 X204.771 Y62.374 E117.9665
G1 X205.837 Y63.957 E118.08471
G1 X206.38 Y65.753 E118.20094
G1 X206.38 Y150.647 E123.45958
G1 X206.061 Y152.061 E123.54937
G1 X205.796 Y152.807 E123.59841
G1 X204.977 Y154.011 E123.68861
G1 X204.229 Y154.882 E123.75973
G1 X202.646 Y155.948 E123.87795
G1 X200.85 Y156.491 E123.99417
G1 X19.464 Y156.492 E135.22989
G1 X18.05 Y156.173 E135.31968
G1 X17.304 Y155.908 E135.36872
G1 X16.1 Y155.089 E135.45892
G1 X15.229 Y154.341 E135.53003
G1 X14.163 Y152.758 E135.64825
G1 X13.62 Y150.962 E135.76447
G1 X13.62 Y66.067 E141.02318
G1 X13.939 Y64.653 E141.11297
G1 X14.204 Y63.907 E141.16201
G1 X15.023 Y62.703 E141.25221
G1 X15.771 Y61.832 E141.32333
G1 X17.354 Y60.766 E141.44155
G1 X18.752 Y60.343 E141.53202
G0 F648 X19.15 Y60.223
G0 F6000 X19.22 Y60.703
G1 F720 X200.485 Y60.703 E152.76024
G1 X201.79 Y60.994 E152.84306
G1 X202.475 Y61.237 E152.88809
G1 X203.63 Y62.023 E152.97463
G1 X204.408 Y62.694 E153.03827
G1 X205.399 Y64.166 E153.14818
G1 X205.9 Y65.823 E153.25541
G1 X205.9 Y150.596 E158.50657
G1 X205.609 Y151.901 E158.58939
G1 X205.366 Y152.586 E158.63441
G1 X204.58 Y153.741 E158.72095
G1 X203.909 Y154.519 E158.78459
G1 X202.437 Y155.51 E158.89451
G1 X200.78 Y156.011 E159.00174
G1 X19.515 Y156.012 E170.22996
G1 X18.21 Y155.721 E170.31278
G1 X17.525 Y155.478 E170.3578
G1 X16.37 Y154.692 E170.44434
G1 X15.592 Y154.021 E170.50798
G1 X14.601 Y152.549 E170.6179
G1 X14.1 Y150.892 E170.72513
G1 X14.1 Y66.118 E175.97635
G1 X14.391 Y64.813 E176.05917
G1 X14.634 Y64.128 E176.10419
G1 X15.42 Y62.973 E176.19073
G1 X16.091 Y62.195 E176.25437
G1 X17.563 Y61.204 E176.36429
G1 X18.822 Y60.823 E176.44577
G0 F648 X19.22 Y60.703
G0 F6000 X19.29 Y61.183
G1 F720 X200.431 Y61.183 E187.66631
G1 X201.629 Y61.446 E187.74228
G1 X202.257 Y61.669 E187.78356
G1 X203.316 Y62.386 E187.86278
G1 X204.046 Y63.016 E187.92251
G1 X204.961 Y64.375 E188.024
G1 X205.42 Y65.893 E188.12223
G1 X205.42 Y150.542 E193.3657
G1 X205.157 Y151.74 E193.44168
G1 X204.934 Y152.368 E193.48296
G1 X204.217 Y153.427 E193.56218
G1 X203.587 Y154.157 E193.62191
G1 X202.228 Y155.072 E193.72339
G1 X200.71 Y155.531 E193.82163
G1 X19.569 Y155.532 E205.04217
G1 X18.371 Y155.269 E205.11814
G1 X17.743 Y155.046 E205.15942
G1 X16.684 Y154.329 E205.23864
G1 X15.954 Y153.699 E205.29837
G1 X15.039 Y152.34 E205.39986
G1 X14.58 Y150.822 E205.49809
G1 X14.58 Y66.172 E210.74162
G1 X14.843 Y64.974 E210.8176
G1 X15.066 Y64.346 E210.85888
G1 X15.783 Y63.287 E210.9381
G1 X16.413 Y62.557 E210.99783
G1 X17.772 Y61.642 E211.09931
G1 X18.892 Y61.303 E211.1718
G0 F648 X19.29 Y61.183
G0 F6000 X19.36 Y61.663
G1 F720 X200.378 Y61.663 E222.38472
G1 X201.526 Y61.915 E222.45752
G1 X202.038 Y62.1 E222.49124
G1 X203.002 Y62.749 E222.56323
G1 X203.684 Y63.338 E222.61905
G1 X204.523 Y64.584 E222.7121
G1 X204.94 Y65.963 E222.80134
G1 X204.94 Y150.489 E228.03719
G1 X204.688 Y151.637 E228.10999
G1 X204.503 Y152.149 E228.14372
G1 X203.854 Y153.113 E228.2157
G1 X203.265 Y153.795 E228.27152
G1 X202.019 Y154.634 E228.36457
G1 X200.64 Y155.051 E228.45381
G1 X19.622 Y155.052 E239.66673
G1 X18.474 Y154.8 E239.73953
G1 X17.962 Y154.615 E239.77326
G1 X16.998 Y153.966 E239.84524
G1 X16.316 Y153.377 E239.90106
G1 X15.477 Y152.131 E239.99411
G1 X15.06 Y150.752 E240.08335
G1 X15.06 Y66.225 E245.31926
G1 X15.312 Y65.077 E245.39207
G1 X15.497 Y64.565 E245.42579
G1 X16.146 Y63.601 E245.49777
G1 X16.735 Y62.919 E245.55359
G1 X17.981 Y62.08 E245.64664
G1 X18.962 Y61.783 E245.71013
G0 F648 X19.36 Y61.663
G0 F6000 X19.43 Y62.143
G1 F720 X200.325 Y62.143 E256.91543
G1 X201.423 Y62.384 E256.98507
G1 X201.819 Y62.531 E257.01123
G1 X202.688 Y63.112 E257.07598
G1 X203.322 Y63.66 E257.12789
G1 X204.085 Y64.793 E257.21251
G1 X204.46 Y66.033 E257.29275
G1 X204.46 Y150.436 E262.52098
G1 X204.219 Y151.534 E262.59062
G1 X204.072 Y151.93 E262.61678
G1 X203.491 Y152.799 E262.68153
G1 X202.943 Y153.433 E262.73344
G1 X201.81 Y154.196 E262.81806
G1 X200.57 Y154.571 E262.8983
G1 X19.675 Y154.572 E274.1036
G1 X18.577 Y154.331 E274.17324
G1 X18.181 Y154.184 E274.1994
G1 X17.312 Y153.603 E274.26415
G1 X16.678 Y153.055 E274.31606
G1 X15.915 Y151.922 E274.40068
G1 X15.54 Y150.682 E274.48092
G1 X15.54 Y66.278 E279.70922
G1 X15.781 Y65.18 E279.77885
G1 X15.928 Y64.784 E279.80501
G1 X16.509 Y63.915 E279.86977
G1 X17.057 Y63.281 E279.92168
G1 X18.19 Y62.518 E280.00629
G1 X19.032 Y62.263 E280.06078
G0 F648 X19.43 Y62.143
G0 F6000 X19.5 Y62.623
G1 F720 X200.272 Y62.623 E291.25847
G1 X201.32 Y62.853 E291.32493
G1 X201.598 Y62.961 E291.3434
G1 X202.374 Y63.475 E291.40106
G1 X202.96 Y63.982 E291.44906
G1 X203.647 Y65.002 E291.52524
G1 X203.98 Y66.103 E291.59649
G1 X203.98 Y150.383 E296.8171
G1 X203.75 Y151.431 E296.88356
G1 X203.642 Y151.709 E296.90204
G1 X203.128 Y152.485 E296.95969
G1 X202.621 Y153.071 E297.00769
G1 X201.601 Y153.758 E297.08387
G1 X200.5 Y154.091 E297.15512
G1 X19.728 Y154.092 E308.3528
G1 X18.68 Y153.862 E308.41926
G1 X18.402 Y153.754 E308.43774
G1 X17.626 Y153.24 E308.49539
G1 X17.04 Y152.733 E308.54339
G1 X16.353 Y151.713 E308.61957
G1 X16.02 Y150.612 E308.69082
G1 X16.02 Y66.331 E313.9115
G1 X16.25 Y65.283 E313.97796
G1 X16.358 Y65.005 E313.99643
G1 X16.872 Y64.229 E314.05409
G1 X17.379 Y63.643 E314.10209
G1 X18.399 Y62.956 E314.17827
G1 X19.102 Y62.743 E314.22377
G0 F648 X19.5 Y62.623
G0 F6000 X19.57 Y63.103
G1 F720 X200.219 Y63.103 E325.41383
G1 X201.217 Y63.322 E325.47712
G1 X201.377 Y63.39 E325.48789
G1 X202.109 Y63.875 E325.54228
G1 X202.598 Y64.303 E325.58254
G1 X203.209 Y65.211 E325.65033
G1 X203.5 Y66.173 E325.71259
G1 X203.5 Y150.33 E330.92558
G1 X203.281 Y151.328 E330.98887
G1 X203.213 Y151.488 E330.99964
G1 X202.728 Y152.22 E331.05403
G1 X202.3 Y152.709 E331.09429
G1 X201.392 Y153.32 E331.16208
G1 X200.43 Y153.611 E331.22434
G1 X19.781 Y153.612 E342.4144
G1 X18.783 Y153.393 E342.47769
G1 X18.623 Y153.325 E342.48846
G1 X17.891 Y152.84 E342.54285
G1 X17.402 Y152.412 E342.58311
G1 X16.791 Y151.504 E342.6509
G1 X16.5 Y150.542 E342.71316
G1 X16.5 Y66.384 E347.92621
G1 X16.719 Y65.386 E347.9895
G1 X16.787 Y65.226 E348.00027
G1 X17.272 Y64.494 E348.05466
G1 X17.7 Y64.005 E348.09492
G1 X18.608 Y63.394 E348.16271
G1 X19.172 Y63.223 E348.19922
G0 F648 X19.57 Y63.103
G0 F6000 X19.64 Y63.583
G1 F720 X200.166 Y63.583 E359.38166
G1 X201.114 Y63.791 E359.44178
G1 X201.793 Y64.236 E359.49207
G1 X202.235 Y64.623 E359.52846
G1 X202.771 Y65.42 E359.58795
G1 X203.02 Y66.243 E359.64122
G1 X203.02 Y150.277 E364.84659
G1 X202.812 Y151.225 E364.90671
G1 X202.367 Y151.904 E364.957
G1 X201.98 Y152.346 E364.99339
G1 X201.183 Y152.882 E365.05288
G1 X200.36 Y153.131 E365.10615
G1 X19.834 Y153.132 E376.28859
G1 X18.886 Y152.924 E376.34871
G1 X18.207 Y152.479 E376.399
G1 X17.765 Y152.092 E376.43539
G1 X17.229 Y151.295 E376.49488
G1 X16.98 Y150.472 E376.54814
G1 X16.98 Y66.437 E381.75358
G1 X17.188 Y65.489 E381.8137
G1 X17.633 Y64.81 E381.86399
G1 X18.02 Y64.368 E381.90038
G1 X18.817 Y63.832 E381.95987
G1 X19.242 Y63.703 E381.98739
G0 F648 X19.64 Y63.583
G0 F6000 X19.71 Y64.063
G1 F720 X200.113 Y64.063 E393.16221
G1 X200.924 Y64.241 E393.21364
G1 X201.53 Y64.638 E393.25852
G1 X201.872 Y64.944 E393.28695
G1 X202.333 Y65.629 E393.33809
G1 X202.54 Y66.313 E393.38236
G1 X202.54 Y150.224 E398.58011
G1 X202.362 Y151.035 E398.63155
G1 X201.965 Y151.641 E398.67642
G1 X201.659 Y151.983 E398.70485
G1 X200.974 Y152.444 E398.75599
G1 X200.29 Y152.651 E398.80026
G1 X19.887 Y152.652 E409.97509
G1 X19.076 Y152.474 E410.02652
G1 X18.47 Y152.077 E410.07139
G1 X18.128 Y151.771 E410.09982
G1 X17.667 Y151.086 E410.15097
G1 X17.46 Y150.402 E410.19523
G1 X17.46 Y66.49 E415.39305
G1 X17.638 Y65.679 E415.44448
G1 X18.035 Y65.073 E415.48936
G1 X18.341 Y64.731 E415.51779
G1 X19.026 Y64.27 E415.56893
G1 X19.312 Y64.183 E415.58745
G0 F648 X19.71 Y64.063
G0 F6000 X19.78 Y64.543
G1 F720 X200.06 Y64.543 E426.75465
G1 X200.734 Y64.691 E426.7974
G1 X201.267 Y65.04 E426.83686
G1 X201.507 Y65.261 E426.85707
G1 X201.895 Y65.838 E426.90014
G1 X202.06 Y66.383 E426.93542
G1 X202.06 Y150.171 E432.12555
G1 X201.912 Y150.845 E432.1683
G1 X201.563 Y151.378 E432.20776
G1 X201.342 Y151.618 E432.22797
G1 X200.765 Y152.006 E432.27104
G1 X200.22 Y152.171 E432.30631
G1 X19.94 Y152.172 E443.47352
G1 X19.266 Y152.024 E443.51626
G1 X18.733 Y151.675 E443.55573
G1 X18.493 Y151.454 E443.57594
G1 X18.105 Y150.877 E443.61901
G1 X17.94 Y150.332 E443.65428
G1 X17.94 Y66.543 E448.84448
G1 X18.088 Y65.869 E448.88722
G1 X18.437 Y65.336 E448.92669
G1 X18.658 Y65.096 E448.9469
G1 X19.235 Y64.708 E448.98997
G1 X19.382 Y64.663 E448.99949
G0 F648 X19.78 Y64.543
G0 F6000 X19.85 Y65.023
G1 F720 X200.007 Y65.023 E460.15908
G1 X200.544 Y65.141 E460.19314
G1 X201.004 Y65.442 E460.22719
G1 X201.14 Y65.576 E460.23901
G1 X201.457 Y66.047 E460.27418
G1 X201.58 Y66.453 E460.30046
G1 X201.58 Y150.118 E465.48298
G1 X201.462 Y150.655 E465.51704
G1 X201.161 Y151.115 E465.55109
G1 X201.027 Y151.251 E465.56291
G1 X200.556 Y151.568 E465.59808
G1 X200.15 Y151.691 E465.62436
G1 X19.993 Y151.692 E476.78395
G1 X19.456 Y151.574 E476.818
G1 X18.996 Y151.273 E476.85206
G1 X18.86 Y151.139 E476.86388
G1 X18.543 Y150.668 E476.89905
G1 X18.42 Y150.262 E476.92533
G1 X18.42 Y66.596 E482.10791
G1 X18.538 Y66.059 E482.14197
G1 X18.839 Y65.599 E482.17602
G1 X18.973 Y65.463 E482.18784
G1 X19.444 Y65.146 E482.22301
G1 X19.452 Y65.143 E482.22354
G0 F648 X19.85 Y65.023
G0 F6000 X19.92 Y65.503
G1 F720 X199.953 Y65.503 E493.37545
G1 X200.356 Y65.592 E493.40101
G1 X200.742 Y65.844 E493.42957
G1 X201.019 Y66.256 E493.46032
G1 X201.1 Y66.523 E493.4776
G1 X201.1 Y150.064 E498.65244
G1 X201.011 Y150.467 E498.678
G1 X200.759 Y150.853 E498.70656
G1 X200.347 Y151.13 E498.73731
G1 X200.08 Y151.211 E498.75459
G1 X20.047 Y151.212 E509.9065
G1 X19.644 Y151.123 E509.93207
G1 X19.258 Y150.871 E509.96062
G1 X18.981 Y150.459 E509.99137
G1 X18.9 Y150.192 E510.00866
G1 X18.9 Y66.65 E515.18355
G1 X18.989 Y66.247 E515.20912
G1 X19.241 Y65.861 E515.23767
G1 X19.54 Y65.66 E515.25999
G0 F648 X19.653 Y65.584
G0 X19.92 Y65.503
G0 F6000 X20.028 Y66.463
G1 F720 X199.9 Y66.463 E526.40192
G1 X200.031 Y66.502 E526.41039
G1 X200.14 Y66.631 E526.42085
G1 X200.14 Y150.011 E531.58572
G1 X200.101 Y150.142 E531.59418
G1 X199.972 Y150.251 E531.60464
G1 X20.1 Y150.252 E542.74658
G1 X19.969 Y150.213 E542.75504
G1 X19.86 Y150.084 E542.7655
G1 X19.86 Y66.815 E547.92349
G0 F648 X19.86 Y66.703
G0 X19.899 Y66.572
G0 X20.028 Y66.463
G0 F6000 X19.92 Y65.983
G1 F720 X199.9 Y65.983 E559.07211
G1 X200.168 Y66.042 E559.08911
G1 X200.398 Y66.192 E559.10612
G1 X200.62 Y66.523 E559.13081
G1 X200.62 Y150.011 E564.30236
G1 X200.561 Y150.279 E564.31936
G1 X200.411 Y150.509 E564.33637
G1 X200.08 Y150.731 E564.36106
G1 X20.1 Y150.732 E575.50968
G1 X19.832 Y150.673 E575.52668
G1 X19.602 Y150.523 E575.54369
G1 X19.38 Y150.192 E575.56838
G1 X19.38 Y66.703 E580.73999
G1 X19.439 Y66.435 E580.75699
G1 X19.58 Y66.22 E580.77292
G0 F648 X19.589 Y66.205
G0 X19.92 Y65.983
G1 F2100 E578.77292
G1 F300 Z0.52
;MESH:techo nuevo.stl
G0 F6000 X20.82 Y149.292 Z0.52
;TYPE:WALL-INNER
G1 F300 Z0.32
G1 F1500 E580.77292
G1 F600 X199.18 Y149.291 E591.82119
G1 X199.18 Y67.423 E596.8924
G1 X20.82 Y67.423 E607.94067
G1 X20.82 Y148.876 E612.98617
G0 F540 X20.82 Y149.292
G0 F6000 X20.34 Y149.772
;TYPE:WALL-OUTER
G1 F600 X199.66 Y149.771 E624.09391
G1 X199.66 Y66.943 E629.22458
G1 X20.34 Y66.943 E640.33232
G1 X20.34 Y149.356 E645.43728
G0 F540 X20.34 Y149.772
G0 F6000 X21.01 Y149.102
G0 X21.252 Y148.86
;TYPE:SKIN
G1 F600 X21.252 Y67.855 E650.45503
G1 X198.748 Y67.855 E661.44979
G1 X198.748 Y148.859 E666.46747
G1 X21.668 Y148.86 E677.43646
G0 F540 X21.252 Y148.86
G0 F6000 X21.732 Y148.379
G1 F600 X22.118 Y148.379 E677.46037
G1 X21.731 Y147.992 E677.49427
G1 X21.731 Y147.313 E677.53633
G1 X22.797 Y148.379 E677.62971
G1 X23.475 Y148.379 E677.67171
G1 X21.731 Y146.634 E677.82453
G1 X21.731 Y145.956 E677.86653
G1 X24.154 Y148.379 E678.07879
